UI/Discovery-Sharing/SVG/calendar-add_outline_24px.svg

<svg width="24" height="24" viewBox="0 0 24 24" fill="none" xmlns="http://www.w3.org/2000/svg">
<path d="M20 16H18V14H16V16H14V18H16V20H18V18H20V16ZM20 22C20.5304 22 21.0391 21.7893 21.4142 21.4142C21.7893 21.0391 22 20.5304 22 20H20V22ZM6 18H9V16H6V18ZM9 12H6V14H9V12ZM9 8H6V10H9V8ZM14 8H11V10H14V8ZM11 14H14V12H11V14ZM18 8H16V10H18V8ZM18 4V2H16V4H8V2H6V4H2V20C2 20.5304 2.21071 21.0391 2.58579 21.4142C2.96086 21.7893 3.46957 22 4 22H14V20H4V6H20V14H22V4H18Z" fill="#0F1621"/>
</svg>

<svg xmlns="http://www.w3.org/2000/svg" width="24" height="24" viewBox="0 0 24 24"><rect width="24" height="24" style="fill:none"/><path d="M20,16H18V14H16v2H14v2h2v2h2V18h2Zm0,6a2,2,0,0,0,2-2H20ZM6,18H9V16H6Zm3-6H6v2H9ZM9,8H6v2H9Zm5,0H11v2h3Zm-3,6h3V12H11Zm7-6H16v2h2Zm0-4V2H16V4H8V2H6V4H2V20a2,2,0,0,0,2,2H14V20H4V6H20v8h2V4Z"/></svg>
